dist/svgs/carbon-icons/svg/data.svg

<svg xmlns="http://www.w3.org/2000/svg" fill-rule="evenodd" viewBox="0 0 24 24"><path d="M0 0v24h24V0H0zm22.1 7l-7.2 8.9-9.2-3.8c-.2-.1-.4 0-.6.1L1 16.6V7h21.1zm.9 16H1v-4.9l4.6-5 9.2 3.8c.2.1.4 0 .6-.1L23 7.5V23zm0-17H1V1h22v5z"/></svg>

<svg width="24px" height="24px" viewBox="0 0 24 24" version="1.1" xmlns="http://www.w3.org/2000/svg" xmlns:xlink="http://www.w3.org/1999/xlink" fill-rule="evenodd">
	<path d="M0,0 L0,6 L0,6 L0,6 L0,6 L0,7 L0,7 L0,7 L0,17.7 L0,18.9 L0,24 L24,24 L24,6.5 L24,6.5 L24,0 L0,0 L0,0 Z M22.1,7 L14.9,15.9 L5.7,12.1 C5.5,12 5.3,12.1 5.1,12.2 L1,16.6 L1,7 L22.1,7 L22.1,7 Z M23,23 L1,23 L1,18.1 L5.6,13.1 L14.8,16.9 C15,17 15.2,16.9 15.4,16.8 L23,7.5 L23,23 L23,23 Z M23,6 L1,6 L1,1 L23,1 L23,6 L23,6 Z"></path>
</svg>
